highlight.io/public/images/quickstart/chi.svg

<svg fill="none" height="256" viewBox="0 0 256 256" width="256" xmlns="http://www.w3.org/2000/svg"><g clip-rule="evenodd" fill-rule="evenodd"><path d="m56.4835 183.994c-7.2185.018-13.346-2.018-18.3509-4.527-12.2646-6.149-18.3508-16.96-18.3508-32.234 0-15.269 6.1165-26.014 18.3508-32.229 5.0379-2.444 11.1531-3.956 18.3509-4.529h16.3973c3.5975 0 6.4054 1.509 8.4194 4.529 2.0141 3.017 3.0211 6.538 3.0211 10.563s-1.007 7.547-3.0211 10.565c-2.014 3.017-4.8219 4.527-8.4194 4.527h-16.3973c-4.3198 0-6.477 2.193-6.477 6.574 0 4.386 2.1572 6.591 6.477 6.579l58.2535-.274c3.598-.009 6.406 1.512 8.42 4.529 2.011 3.017 3.022 6.538 3.022 10.563s-1.008 7.547-3.022 10.565c-2.014 3.017-4.824 4.519-8.42 4.527z" fill="#01933f"/><path d="m206.93 172.348v-51.601c0-3.593 1.512-6.359 4.533-8.37 3.024-2.016 6.55-3.02 10.579-3.02s7.555 1.004 10.58 3.02c3.021 2.011 4.533 4.777 4.533 8.37v51.601c0 3.593-1.512 6.361-4.533 8.373-3.025 2.011-6.551 3.018-10.58 3.018s-7.555-1.007-10.579-3.018c-3.021-2.012-4.533-4.78-4.533-8.373z" fill="#01933f"/><path d="m222.042 101.164c-4.173 0-7.735-1.4739-10.686-4.4196-2.95-2.9471-4.426-6.5042-4.426-10.6727s1.476-7.7256 4.426-10.6727c2.951-2.9457 6.513-4.4172 10.686-4.4172 4.174 0 7.736 1.4715 10.686 4.4172 2.951 2.9471 4.427 6.5042 4.427 10.6727s-1.476 7.7256-4.427 10.6727c-2.95 2.9457-6.512 4.4196-10.686 4.4196z" fill="#83c21f"/><path d="m163.754 172.312v-25.871c0-4.311-2.16-6.469-6.477-6.469h-22.23c-15.254 0-25.979-6.108-32.167-18.326-2.446-5.029-3.9584-11.139-4.5348-18.325v-17.2493c0-3.5928 1.5133-6.397 4.5348-8.4085 3.023-2.0114 6.549-3.0171 10.579-3.0171 4.028 0 7.554 1.0057 10.578 3.0171 3.022 2.0115 4.534 4.8157 4.534 8.4085v17.2493c0 4.312 2.157 6.468 6.476 6.468h22.23c7.197.572 13.313 2.084 18.351 4.528 12.234 6.18 18.351 16.888 18.351 32.124v25.871c0 3.594-1.512 6.397-4.533 8.408-3.024 2.012-6.55 3.019-10.579 3.019-4.031 0-7.557-1.007-10.58-3.019-3.021-2.011-4.533-4.814-4.533-8.408z" fill="#01933f"/></g></svg>

<svg width="256" height="256" viewBox="0 0 256 256" fill="none" xmlns="http://www.w3.org/2000/svg">
<path fill-rule="evenodd" clip-rule="evenodd" d="M56.4835 183.994C49.265 184.012 43.1375 181.976 38.1326 179.467C25.868 173.318 19.7818 162.507 19.7818 147.233C19.7818 131.964 25.8983 121.219 38.1326 115.004C43.1705 112.56 49.2857 111.048 56.4835 110.475H72.8808C76.4783 110.475 79.2862 111.984 81.3002 115.004C83.3143 118.021 84.3213 121.542 84.3213 125.567C84.3213 129.592 83.3143 133.114 81.3002 136.132C79.2862 139.149 76.4783 140.659 72.8808 140.659H56.4835C52.1637 140.659 50.0065 142.852 50.0065 147.233C50.0065 151.619 52.1637 153.824 56.4835 153.812L114.737 153.538C118.335 153.529 121.143 155.05 123.157 158.067C125.168 161.084 126.179 164.605 126.179 168.63C126.179 172.655 125.171 176.177 123.157 179.195C121.143 182.212 118.333 183.714 114.737 183.722L56.4835 183.994Z" fill="#01933F"/>
<path fill-rule="evenodd" clip-rule="evenodd" d="M206.93 172.348V120.747C206.93 117.154 208.442 114.388 211.463 112.377C214.487 110.361 218.013 109.357 222.042 109.357C226.071 109.357 229.597 110.361 232.622 112.377C235.643 114.388 237.155 117.154 237.155 120.747V172.348C237.155 175.941 235.643 178.709 232.622 180.721C229.597 182.732 226.071 183.739 222.042 183.739C218.013 183.739 214.487 182.732 211.463 180.721C208.442 178.709 206.93 175.941 206.93 172.348Z" fill="#01933F"/>
<path fill-rule="evenodd" clip-rule="evenodd" d="M222.042 101.164C217.869 101.164 214.307 99.6901 211.356 96.7444C208.406 93.7973 206.93 90.2402 206.93 86.0717C206.93 81.9032 208.406 78.3461 211.356 75.399C214.307 72.4533 217.869 70.9818 222.042 70.9818C226.216 70.9818 229.778 72.4533 232.728 75.399C235.679 78.3461 237.155 81.9032 237.155 86.0717C237.155 90.2402 235.679 93.7973 232.728 96.7444C229.778 99.6901 226.216 101.164 222.042 101.164Z" fill="#83C21F"/>
<path fill-rule="evenodd" clip-rule="evenodd" d="M163.754 172.312V146.441C163.754 142.13 161.594 139.972 157.277 139.972H135.047C119.793 139.972 109.068 133.864 102.88 121.646C100.434 116.617 98.9216 110.507 98.3452 103.321V86.0717C98.3452 82.4789 99.8585 79.6747 102.88 77.6632C105.903 75.6518 109.429 74.6461 113.459 74.6461C117.487 74.6461 121.013 75.6518 124.037 77.6632C127.059 79.6747 128.571 82.4789 128.571 86.0717V103.321C128.571 107.633 130.728 109.789 135.047 109.789H157.277C164.474 110.361 170.59 111.873 175.628 114.317C187.862 120.497 193.979 131.205 193.979 146.441V172.312C193.979 175.906 192.467 178.709 189.446 180.72C186.422 182.732 182.896 183.739 178.867 183.739C174.836 183.739 171.31 182.732 168.287 180.72C165.266 178.709 163.754 175.906 163.754 172.312Z" fill="#01933F"/>
</svg>
